X:1
T:Horses Branle
M:4/4
R:Branle
K:G
L:1/4
G3/2 A/2 BB | cBAc | BAGF | E2 D2 | G3/2 A/2 BB | cBAc |BGAF | G2 G2 :|
dc/2B/2 AB | c B/2A/2 G/2 A/2 B | AGFG | A2 A2 | dc/2B/2 AB | c B/2A/2 G/2 A/2 B | AGGF | G2G2:|
_B A/2G/2 _B A/2G/2 | FGA2| DEFG | A_BAG | _B A/2G/2 _B A/2G/2 | FGA2| DEFG | GFG2:|
